src/assets/images/icons/user-line.svg

<svg width="24" height="24" viewBox="0 0 24 24" fill="none" xmlns="http://www.w3.org/2000/svg">
<path d="M4 22C4 19.8783 4.84285 17.8434 6.34315 16.3431C7.84344 14.8429 9.87827 14 12 14C14.1217 14 16.1566 14.8429 17.6569 16.3431C19.1571 17.8434 20 19.8783 20 22H18C18 20.4087 17.3679 18.8826 16.2426 17.7574C15.1174 16.6321 13.5913 16 12 16C10.4087 16 8.88258 16.6321 7.75736 17.7574C6.63214 18.8826 6 20.4087 6 22H4ZM12 13C8.685 13 6 10.315 6 7C6 3.685 8.685 1 12 1C15.315 1 18 3.685 18 7C18 10.315 15.315 13 12 13ZM12 11C14.21 11 16 9.21 16 7C16 4.79 14.21 3 12 3C9.79 3 8 4.79 8 7C8 9.21 9.79 11 12 11Z" fill="#181D27"/>
</svg>

<svg xmlns="http://www.w3.org/2000/svg" width="24" height="24" fill="none" viewBox="0 0 24 24"><path fill="#181d27" d="M4 22a8 8 0 0 1 16 0h-2a6 6 0 1 0-12 0zm8-9c-3.315 0-6-2.685-6-6s2.685-6 6-6 6 2.685 6 6-2.685 6-6 6m0-2c2.21 0 4-1.79 4-4s-1.79-4-4-4-4 1.79-4 4 1.79 4 4 4"/></svg>
